!!!OTL: Liebster Jesu
!!!COL: Orgelbüchlein
!!!COL: Hymnal 1982
**kern	**text	**text	**text	**text	**text	**text
*clefG2	*	*	*	*	*	*
*k[f#]	*	*	*	*	*	*
*M4/4	*	*	*	*	*	*
*G:	*	*	*	*	*	*
=1	=	=	=	=	=	=
4b	1.Lieb-	2.Un-	3.O	1.Bless-	2.All	3.Glo-
4g	ster	ser	du	ed	our	ri-
4a	Je-	Wis-	Glanz	Je-	know-	ous
4dd	su,	sen	der	sus,	ledge,	Lord,
=2	=	=	=	=	=	=
4b	wir	und	Herr-	at	sense,	your-
4g	sind	Ver-	lich-	your	and	self
2a;	hier,	stand	keit,	word	sight	im-
=3	=	=	=	=	=	=
4g	dich	ist	Licht	we	lie	part;
4g	und	mit	vom	are	in	Light
4g	dein	Fins-	Licht,	gath-	deep-	of
4g	Wort	ter-	aus	ered	est	Light,
=4	=	=	=	=	=	=
4a	an-	nis		Gott	all	dark-	from
4b	zu-	um-	ge-	to	ness	God
2a	hö-	hül-	bo-	hear	shroud-	pro-
=5	=	=	=	=	=	=
1g;	ren;	let,	ren,	you.	ed,	ceed-
=6	=	=	=	=	=	=
4b	len-	wo	mach	Let	till	open
4g	ke	nicht	uns	our	your	lips
4a	Sin-	dei-	al-	hearts	Spir-	and
4dd	nen	nes	le-	and	it	ears
=7	=	=	=	=	=	=
4b	und	Geis-	samt	souls	breaks	and
4g	Be-	tes	be-	be	our	heart;
2a;	gier	Hand	reit,	stirred	night	help
=8	=	=	=	=	=	=
4g	hin	uns	öff-	now	with	us
4g	zu	mit	ne	to	your	by
4g	dei-	hel-	Her-	seek	beams	your
4g	nem	lem	zen,	and	of	Spir-
=9	=	=	=	=	=	=
4a	Him-	Licht	Mund	love	truth	it's
4b	mels-	er-	und	and	un-	lead-
2a	leh-	fül-	Oh-	fear	cloud-	ing.
=10	=	=	=	=	=	=
1g;	ren,	let.	ren;	you.	ed.	Hear
=11	=	=	=	=	=	=
4d	daß	Gut-	un-	By	You	the
4d	die	eser	ser	your	a-	cry
4e	Her-	den	Bit-	gos-	lone	your
4f#	zen	ken,	ten,	pel	to	church
=12	=	=	=	=	=	=
4g	von	tun	Flehn	pure	God	now
4a	der	und	und	and	can	rais-
4f#	Er-	dich-	Sin-	ho-	win	es;
4d;	den	ten	gen	ly,	us	Lord,
=13	=	=	=	=	=	=
4g	ganz	musst	laß,	teach	you	ac-
4g	zu	du	Herr	us	must	cept
4a	dir	selbst	Je-	Lord,	work	our
4b	ge-	in	su,	to	all	pray-
=14	=	=	=	=	=	=
4cc	zo-	uns	wohl	love	good	ers
4b	gen	ver-	ge-	you	with	and
2a	wer-	rich-	lin-	sole-	in	prais-
=15	=	=	=	=	=	=
1g;	den.	ten.	gen.	ly.	us.	es.
=||	=	=	=	=	=	=
*-	*-	*-	*-	*-	*-	*-
